X:186
T:Michael Rilly's
T:Twilight at Portroe
T:The dawn
R:Reel
O:Ireland
D:Matt Molloy & Sean Keane: Contentment is Wealth.
D:De Dannan: Mist Covered Mountain.
B:Music from Ireland Vol. 3
S:Music from Ireland Vol. 3
Z:Transcription, chords:Mike Long
M:C|
L:1/8
K:G
"G"G,B,DB, "C"CEGE|"D"DFAF "G"GBdB|"C"ce ~e2 "G"dBGB|"C"cABG "D"AGED|\
"G"B,2 DB, "C"CEGE|"D"DFAF "G"GBdB|
"C"ce ~e2 "G"dBGB|[1 "D"AcBA "G"BG G2:|[2 "D"AcBA "G"BGGA\
|:"G"B2 dB eBdB|"G"GB ~B2 "C"AEGE|
"G"DG,B,D "C"EFGB|"C"cdef "D"gfgd|\
"G"B2 dB eBdB|"G"GB ~B2 "C"AEGE|\
"G"DG,B,D "C"EFGB|"D"cedc "G"BG G2:|
